;Generated by Cura LulzBot Edition GCodeWriter Version: 3.6.20
;FLAVOR:Marlin
;TIME:1029
;Filament used: 0.349068m
;Layer height: 0.25
;Generated with Cura_SteamEngine 3.6.20
M82 ;absolute extrusion mode
;This G-Code has been generated specifically for the LulzBot Mini 2 with SE 0.5mm Tool Head
M73 P0                  ; clear GLCD progress bar
M75 					; Start GLCD Print Timer
G26 					; clear potential 'probe fail' condition
M107 					; disable fans
M420 S0                 ; disable leveling matrix
G90 					; absolute positioning
M82 					; set extruder to absolute mode
G92 E0 					; set extruder position to 0
M140 S60.0 ; start bed heating up
G28 					; home all axes
G0 X0 Y187 Z156 F200 			; move away from endstops
M117 Mini 2 Wiping...			; progress indicator message on LCD
M109 R140 	; soften filament before retraction
G1 E-15 F75 				; retract filament
M109 R140 	; wait for extruder to reach wiping temp
G1 X45 Y176 F11520 			; move above wiper pad
G1 Z0 F1200 				; push nozzle into wiper
G1 X45 Y178 Z-.5 F4000		; wiping
G1 X55 Y176 Z-.5 F4000		; wiping
G1 X45 Y177 Z0 F4000		; wiping
G1 X55 Y176 F4000		; wiping
G1 X45 Y178 F4000		; wiping
G1 X55 Y176 F4000		; wiping
G1 X45 Y178 F4000		; wiping
G1 X55 Y176 F4000		; wiping
G1 X60 Y178 F4000		; wiping
G1 X80 Y176 F4000		; wiping
G1 X60 Y178 F4000		; wiping
G1 X80 Y176 F4000		; wiping
G1 X60 Y178 F4000		; wiping
G1 X90 Y176 F4000		; wiping
G1 X80 Y178 F4000		; wiping
G1 X100 Y176 F4000		; wiping
G1 X80 Y178 F4000		; wiping
G1 X100 Y176 F4000		; wiping
G1 X80 Y178 F4000		; wiping
G1 X100 Y176 F4000		; wiping
G1 X110 Y178 F4000		; wiping
G1 X100 Y176 F4000		; wiping
G1 X110 Y178 F4000		; wiping
G1 X100 Y176 F4000		; wiping
G1 X110 Y178 F4000		; wiping
G1 X115 Y176 Z-0.5 F1000	; wiping
G1 Z10					; raise extruder
G28 X0 Y0				; home X and Y
M109 R140	; wait for extruder to reach probe temp
M204 S300				; set probing acceleration
G29					; start auto-leveling sequence
M420 S1                     ; enable leveling matrix
M425 Z			     		; use measured Z backlash for compensation
M425 Z F0		     		; turn off measured Z backlash compensation. (if activated in the quality settings, this command will automatically be ignored)
M204 S2000				; restore standard acceleration
G1 X5 Y15 Z10 F5000			; move up off last probe point
G4 S1					; pause
M400					; wait for moves to finish
M117 Heating...				; progress indicator message on LCD
M109 R200 ; wait for extruder to reach initial printing temp
M190 R60.0 ; wait for bed to reach printing temp
G1 Z2 E0 F75				; prime tiny bit of filment into the nozzle
M117 Mini 2 Printing...		; progress indicator message on LCD

M221 S100 T0
G92 E0
G1 F600 E-1.5
;LAYER_COUNT:12
;LAYER:0
M107
;MESH:
G0 F2625 X6.382 Y6.382 Z0.425
;TYPE:WALL-INNER
G1 F600 E0
G1 F900 X6.382 Y19.943 E0.45172
G1 X19.943 Y19.943 E0.90344
G1 X19.943 Y6.382 E1.35517
G1 X6.382 Y6.382 E1.80689
G0 F2625 X6.382 Y19.95
G1 F900 X6.382 Y142.05 E5.87408
G1 X13.159 Y142.05 E6.09983
G1 X13.159 Y135.266 E6.3258
G1 X25.411 Y135.266 E6.73392
G1 X26.729 Y135.266 E6.77783
G1 X74.213 Y87.783 E9.01468
G1 X74.213 Y74.217 E9.46656
G1 X19.945 Y19.95 E12.023
G1 X6.382 Y19.95 E12.02935
G0 F2625 X19.456 Y19.456
G0 X19.95 Y6.382
G1 F900 X19.95 Y19.945 E12.03571
G1 X74.217 Y74.213 E12.06637
G1 X87.783 Y74.213 E12.51826
G1 X142.05 Y19.945 E15.07469
G1 X142.05 Y6.382 E15.52648
G1 X19.95 Y6.382 E19.59368
G0 F2625 X20.429 Y19.748
G0 X74.22 Y74.22
G1 F900 X74.22 Y87.78 E19.5999
G1 X87.78 Y87.78 E20.05159
G1 X87.78 Y74.22 E20.50328
G1 X74.22 Y74.22 E20.5095
G0 F2625 X73.734 Y87.586
G0 X26.548 Y134.765
G0 X26.754 Y135.288
G0 X26.217 Y135.29
G0 X13.166 Y135.274
G1 F900 X13.166 Y142.05 E20.51253
G1 X19.945 Y142.05 E20.73834
G1 X25.795 Y136.2 E21.01392
G1 X25.411 Y135.274 E21.04732
G1 X13.166 Y135.274 E21.05332
G0 F2625 X13.166 Y142.057
G1 F900 X13.166 Y148.834 E21.27906
G1 X19.943 Y148.834 E21.50481
G1 X19.943 Y142.057 E21.73055
G1 X13.166 Y142.057 E21.73368
G0 F2625 X6.382 Y142.057
G1 F900 X6.382 Y155.618 E22.1854
G1 X19.943 Y155.618 E22.63712
G1 X19.943 Y148.841 E22.86287
G1 X13.159 Y148.841 E22.8666
G1 X13.159 Y142.057 E22.87033
G1 X6.382 Y142.057 E22.87349
G0 F2625 X12.672 Y142.544
G0 X13.653 Y148.347
G0 X19.95 Y148.834
G1 F900 X26.726 Y148.834 E23.0992
G1 X26.726 Y136.589 E23.50709
G1 X25.8 Y136.205 E23.54048
G1 X19.95 Y142.055 E23.54434
G1 X19.95 Y148.834 E23.54753
G0 F2625 X19.95 Y148.841
G1 F900 X19.95 Y155.618 E23.55069
G1 X142.05 Y155.618 E27.61789
G1 X142.05 Y142.055 E28.06967
G1 X87.783 Y87.787 E30.62611
G1 X74.217 Y87.787 E30.63253
G1 X26.734 Y135.271 E30.65936
G1 X26.734 Y136.589 E30.70326
G1 X26.734 Y148.841 E30.71072
G1 X19.95 Y148.841 E30.71469
G0 F2625 X20.437 Y155.131
G0 X141.563 Y155.131
G0 X142.057 Y142.057
G1 F900 X142.057 Y155.618 E30.72098
G1 X155.618 Y155.618 E31.17271
G1 X155.618 Y142.057 E31.62443
G1 X142.057 Y142.057 E32.07615
G0 F2625 X155.618 Y142.05
G1 F900 X155.618 Y19.95 E36.14334
G1 X142.055 Y19.95 E36.59513
G1 X87.787 Y74.217 E36.62579
G1 X87.787 Y87.783 E36.63222
G1 X142.055 Y142.05 E36.66288
G1 X155.618 Y142.05 E36.66924
G0 F2625 X155.625 Y19.95
G1 F900 X155.625 Y142.057 E36.73443
G1 X155.625 Y155.625 E36.74178
G1 X142.05 Y155.625 E36.75015
G1 X19.943 Y155.625 E36.81534
G1 X6.375 Y155.625 E36.82269
G1 X6.375 Y142.057 E36.83003
G1 X6.375 Y19.95 E36.88709
G1 X6.375 Y6.375 E36.89546
G1 X19.95 Y6.375 E36.90383
G1 X142.05 Y6.375 E36.96077
G1 X155.625 Y6.375 E37.41296
G1 X155.625 Y19.95 E37.86514
G0 F2625 X142.544 Y19.456
G0 X142.057 Y6.382
G1 F900 X142.057 Y19.943 E37.87144
G1 X155.618 Y19.943 E37.87773
G1 X155.618 Y6.382 E37.88563
G1 X142.057 Y6.382 E37.89263
G0 F2625 X142.557 Y6.882
;TYPE:WALL-OUTER
G1 F900 X142.557 Y19.443 E38.31104
G1 X155.118 Y19.443 E38.72945
G1 X155.118 Y6.882 E39.14786
G1 X142.557 Y6.882 E39.56627
G0 F2625 X142.557 Y7.132
G0 X142.472 Y7.132
G0 X141.571 Y19.748
G0 X87.586 Y73.734
G0 X74.665 Y74.665
G0 X74.72 Y74.72
G1 F900 X74.72 Y87.28 E39.98465
G1 X87.28 Y87.28 E40.40303
G1 X87.28 Y74.72 E40.82141
G1 X74.72 Y74.72 E41.23978
G0 F2625 X74.72 Y74.97
G0 X74.635 Y74.97
G0 X73.734 Y87.586
G0 X26.548 Y134.765
G0 X26.754 Y135.288
G0 X26.217 Y135.29
G0 X13.611 Y135.719
G0 X13.666 Y135.774
G1 F900 X13.666 Y141.55 E41.43219
G1 X19.738 Y141.55 E41.63445
G1 X25.064 Y136.224 E41.88534
G1 X25.205 Y136.083 E41.89199
G1 X25.077 Y135.774 E41.90313
G1 X24.877 Y135.774 E41.90877
G1 X13.666 Y135.774 E42.28221
G0 F2625 X13.666 Y136.024
G0 X13.581 Y136.024
G0 X13.611 Y142.502
G0 X13.666 Y142.557
G1 F900 X13.666 Y148.334 E42.47464
G1 X19.443 Y148.334 E42.66708
G1 X19.443 Y142.557 E42.85951
G1 X13.666 Y142.557 E43.05195
G0 F2625 X13.666 Y142.807
G0 X13.581 Y142.807
G0 X12.763 Y142.571
G0 X6.827 Y142.502
G0 X6.882 Y142.557
G1 F900 X6.882 Y155.118 E43.47036
G1 X19.443 Y155.118 E43.88877
G1 X19.443 Y149.341 E44.0812
G1 X12.659 Y149.341 E44.30718
G1 X12.659 Y142.557 E44.53316
G1 X6.882 Y142.557 E44.72559
G0 F2625 X6.882 Y142.807
G0 X6.797 Y142.807
G0 X6.869 Y142.544
G0 X12.672 Y142.544
G0 X13.653 Y148.347
G0 X20.395 Y148.389
G0 X20.45 Y148.334
G1 F900 X26.226 Y148.334 E44.91799
G1 X26.226 Y137.123 E45.29144
G1 X26.226 Y136.923 E45.2981
G1 X25.917 Y136.795 E45.30924
G1 X25.776 Y136.936 E45.31486
G1 X20.45 Y142.262 E45.56576
G1 X20.45 Y148.334 E45.76802
G0 F2625 X20.7 Y148.334
G0 X20.7 Y148.419
G0 X20.395 Y149.286
G0 X20.45 Y149.341
G1 F900 X20.45 Y155.118 E45.96045
G1 X141.55 Y155.118 E49.99433
G1 X141.55 Y142.262 E50.42257
G1 X87.576 Y88.287 E52.9652
G1 X74.424 Y88.287 E53.4033
G1 X27.234 Y135.478 E55.62635
G1 X27.234 Y149.341 E56.08813
G1 X20.45 Y149.341 E56.31411
G0 F2625 X20.45 Y149.591
G0 X20.365 Y149.591
G0 X20.437 Y155.131
G0 X141.563 Y155.131
G0 X142.502 Y142.502
G0 X142.557 Y142.557
G1 F900 X142.557 Y155.118 E56.73252
G1 X155.118 Y155.118 E57.15093
G1 X155.118 Y142.557 E57.56934
G1 X142.557 Y142.557 E57.98775
G0 F2625 X142.557 Y142.807
G0 X142.472 Y142.807
G0 X142.536 Y142.571
G0 X155.173 Y141.605
G0 X155.118 Y141.55
G1 F900 X155.118 Y20.45 E62.02164
G1 X142.262 Y20.45 E62.44987
G1 X88.287 Y74.424 E64.9925
G1 X88.287 Y87.576 E65.4306
G1 X142.262 Y141.55 E67.97323
G1 X155.118 Y141.55 E68.40147
G0 F2625 X155.118 Y141.3
G0 X155.203 Y141.3
G0 X156.04 Y156.125
G0 X156.125 Y156.125
G1 F900 X5.875 Y156.125 E73.40635
G1 X5.875 Y5.875 E78.41123
G1 X156.125 Y5.875 E83.41611
G1 X156.125 Y156.125 E88.42099
G0 F2625 X155.875 Y156.125
G0 X155.875 Y156.04
G0 X142.544 Y155.131
G0 X141.571 Y142.252
G0 X87.586 Y88.266
G0 X74.707 Y87.293
G0 X73.734 Y74.414
G0 X19.748 Y20.429
G0 X6.827 Y20.395
G0 X6.882 Y20.45
G1 F900 X6.882 Y141.55 E92.45488
G1 X12.659 Y141.55 E92.64731
G1 X12.659 Y134.766 E92.87329
G1 X26.522 Y134.766 E93.33507
G1 X73.713 Y87.576 E95.55812
G1 X73.713 Y74.424 E95.99622
G1 X19.738 Y20.45 E98.53885
G1 X6.882 Y20.45 E98.96709
G0 F2625 X6.882 Y20.7
G0 X6.797 Y20.7
G0 X6.827 Y6.827
G0 X6.882 Y6.882
G1 F900 X6.882 Y19.443 E99.3855
G1 X19.443 Y19.443 E99.80391
G1 X19.443 Y6.882 E100.22232
G1 X6.882 Y6.882 E100.64073
G0 F2625 X6.882 Y7.132
G0 X6.797 Y7.132
G0 X6.861 Y6.896
G0 X20.395 Y6.827
G0 X20.45 Y6.882
G1 F900 X20.45 Y19.738 E101.06897
G1 X74.424 Y73.713 E103.6116
G1 X87.576 Y73.713 E104.0497
G1 X141.55 Y19.738 E106.59232
G1 X141.55 Y6.882 E107.02056
G1 X20.45 Y6.882 E111.05445
G0 F2625 X20.45 Y7.132
M104 S195
G0 X20.365 Y7.132
G0 X20.429 Y19.748
G0 X73.734 Y74.414
G0 X73.734 Y87.586
G0 X26.548 Y134.765
G0 X26.754 Y135.288
G0 X26.575 Y135.292
G0 X26.142 Y135.756
;TYPE:SKIN
G1 F900 X26.244 Y135.756 E111.05785
G1 X26.244 Y135.858 E111.06124
G1 X26.172 Y135.828 E111.06384
G1 X26.142 Y135.756 E111.06644
G0 F2625 X26.142 Y135.766
;MESH:NONMESH
G0 X12.672 Y134.779
G0 X12.672 Y141.563
G0 X6.869 Y141.563
G0 X6.382 Y6.382
;TIME_ELAPSED:337.394394
;LAYER:1
M140 S60
M221 S100 T0
M106 S191.2
;MESH:
G0 F6562.5 X6.382 Y6.382 Z0.675
;TYPE:WALL-INNER
G1 F1500 X6.382 Y19.943 E111.33216
G1 X19.943 Y19.943 E111.59788
G1 X19.943 Y6.382 E111.8636
G1 X6.382 Y6.382 E112.12931
G0 F6562.5 X6.382 Y19.95
G1 F1500 X6.382 Y142.05 E114.52178
G1 X13.159 Y142.05 E114.65457
G1 X13.159 Y135.266 E114.7875
G1 X25.411 Y135.266 E115.02757
G1 X26.729 Y135.266 E115.0534
G1 X74.213 Y87.783 E116.36919
G1 X74.213 Y74.217 E116.63501
G1 X19.945 Y19.95 E118.13879
G1 X6.382 Y19.95 E118.14253
G0 F6562.5 X19.456 Y19.456
G0 X19.95 Y6.382
G1 F1500 X19.95 Y19.945 E118.14627
G1 X74.217 Y74.213 E118.16431
G1 X87.783 Y74.213 E118.43012
G1 X142.05 Y19.945 E119.93391
G1 X142.05 Y6.382 E120.19966
G1 X19.95 Y6.382 E122.59213
G0 F6562.5 X20.429 Y19.748
G0 X74.22 Y74.22
G1 F1500 X74.22 Y87.78 E122.59579
G1 X87.78 Y87.78 E122.86149
G1 X87.78 Y74.22 E123.12719
G1 X74.22 Y74.22 E123.13085
G0 F6562.5 X73.734 Y87.586
G0 X26.548 Y134.765
G0 X26.754 Y135.288
G0 X26.217 Y135.29
G0 X13.166 Y135.274
G1 F1500 X13.166 Y142.05 E123.13263
G1 X19.945 Y142.05 E123.26546
G1 X25.795 Y136.2 E123.42757
G1 X25.411 Y135.274 E123.44721
G1 X13.166 Y135.274 E123.45075
G0 F6562.5 X13.166 Y142.057
G1 F1500 X13.166 Y148.834 E123.58354
G1 X19.943 Y148.834 E123.71633
G1 X19.943 Y142.057 E123.84912
G1 X13.166 Y142.057 E123.85096
G0 F6562.5 X6.382 Y142.057
G1 F1500 X6.382 Y155.618 E124.11668
G1 X19.943 Y155.618 E124.38239
G1 X19.943 Y148.841 E124.51519
G1 X13.159 Y148.841 E124.51738
G1 X13.159 Y142.057 E124.51957
G1 X6.382 Y142.057 E124.52143
G0 F6562.5 X12.672 Y142.544
G0 X13.653 Y148.347
G0 X19.95 Y148.834
G1 F1500 X26.726 Y148.834 E124.6542
G1 X26.726 Y136.589 E124.89414
G1 X25.8 Y136.205 E124.91378
G1 X19.95 Y142.055 E124.91605
G1 X19.95 Y148.834 E124.91793
G0 F6562.5 X19.95 Y148.841
G1 F1500 X19.95 Y155.618 E124.91979
G1 X142.05 Y155.618 E127.31225
G1 X142.05 Y142.055 E127.57801
G1 X87.783 Y87.787 E129.0818
G1 X74.217 Y87.787 E129.08558
G1 X26.734 Y135.271 E129.10135
G1 X26.734 Y136.589 E129.12718
G1 X26.734 Y148.841 E129.13157
G1 X19.95 Y148.841 E129.13391
G0 F6562.5 X20.437 Y155.131
G0 X141.563 Y155.131
G0 X142.057 Y142.057
G1 F1500 X142.057 Y155.618 E129.13761
G1 X155.618 Y155.618 E129.40333
G1 X155.618 Y142.057 E129.66904
G1 X142.057 Y142.057 E129.93476
G0 F6562.5 X155.618 Y142.05
G1 F1500 X155.618 Y19.95 E132.32723
G1 X142.055 Y19.95 E132.59299
G1 X87.787 Y74.217 E132.61102
G1 X87.787 Y87.783 E132.6148
G1 X142.055 Y142.05 E132.63284
G1 X155.618 Y142.05 E132.63658
G0 F6562.5 X155.625 Y19.95
G1 F1500 X155.625 Y142.057 E132.67493
G1 X155.625 Y155.625 E132.67925
G1 X142.05 Y155.625 E132.68417
G1 X19.943 Y155.625 E132.72252
G1 X6.375 Y155.625 E132.72684
G1 X6.375 Y142.057 E132.73116
G1 X6.375 Y19.95 E132.76473
G1 X6.375 Y6.375 E132.76965
G1 X19.95 Y6.375 E132.77457
G1 X142.05 Y6.375 E132.80807
G1 X155.625 Y6.375 E133.07406
G1 X155.625 Y19.95 E133.34005
G0 F6562.5 X142.544 Y19.456
G0 X142.057 Y6.382
G1 F1500 X142.057 Y19.943 E133.34375
G1 X155.618 Y19.943 E133.34745
G1 X155.618 Y6.382 E133.3521
G1 X142.057 Y6.382 E133.35622
G0 F6562.5 X142.557 Y6.882
;TYPE:WALL-OUTER
G1 F1350 X142.557 Y19.443 E133.60234
G1 X155.118 Y19.443 E133.84847
G1 X155.118 Y6.882 E134.09459
G1 X142.557 Y6.882 E134.34072
G0 F6562.5 X142.557 Y7.132
G0 X142.472 Y7.132
G0 X141.571 Y19.748
G0 X87.586 Y73.734
G0 X74.665 Y74.665
G0 X74.72 Y74.72
G1 F1350 X74.72 Y87.28 E134.58682
G1 X87.28 Y87.28 E134.83293
G1 X87.28 Y74.72 E135.07903
G1 X74.72 Y74.72 E135.32514
G0 F6562.5 X74.72 Y74.97
G0 X74.635 Y74.97
G0 X73.734 Y87.586
G0 X26.548 Y134.765
G0 X26.754 Y135.288
G0 X26.217 Y135.29
G0 X13.611 Y135.719
G0 X13.666 Y135.774
G1 F1350 X13.666 Y141.55 E135.43831
G1 X19.738 Y141.55 E135.55729
G1 X25.064 Y136.224 E135.70488
G1 X25.205 Y136.083 E135.70878
G1 X25.077 Y135.774 E135.71534
G1 X24.877 Y135.774 E135.71866
G1 X13.666 Y135.774 E135.93833
G0 F6562.5 X13.666 Y136.024
G0 X13.581 Y136.024
G0 X13.611 Y142.502
G0 X13.666 Y142.557
G1 F1350 X13.666 Y148.334 E136.05152
G1 X19.443 Y148.334 E136.16472
G1 X19.443 Y142.557 E136.27792
G1 X13.666 Y142.557 E136.39111
G0 F6562.5 X13.666 Y142.807
G0 X13.581 Y142.807
G0 X12.763 Y142.571
G0 X6.827 Y142.502
G0 X6.882 Y142.557
G1 F1350 X6.882 Y155.118 E136.63724
G1 X19.443 Y155.118 E136.88336
G1 X19.443 Y149.341 E136.99656
G1 X12.659 Y149.341 E137.12949
G1 X12.659 Y142.557 E137.26241
G1 X6.882 Y142.557 E137.37561
G0 F6562.5 X6.882 Y142.807
G0 X6.797 Y142.807
G0 X6.869 Y142.544
G0 X12.672 Y142.544
G0 X13.653 Y148.347
G0 X20.395 Y148.389
G0 X20.45 Y148.334
G1 F1350 X26.226 Y148.334 E137.48879
G1 X26.226 Y137.123 E137.70846
G1 X26.226 Y136.923 E137.71238
G1 X25.917 Y136.795 E137.71893
G1 X25.776 Y136.936 E137.72224
G1 X20.45 Y142.262 E137.86982
G1 X20.45 Y148.334 E137.9888
G0 F6562.5 X20.7 Y148.334
G0 X20.7 Y148.419
G0 X20.395 Y149.286
G0 X20.45 Y149.341
G1 F1350 X20.45 Y155.118 E138.102
G1 X141.55 Y155.118 E140.47487
G1 X141.55 Y142.262 E140.72678
G1 X87.576 Y88.287 E142.22244
G1 X74.424 Y88.287 E142.48014
G1 X27.234 Y135.478 E143.78782
G1 X27.234 Y149.341 E144.05946
G1 X20.45 Y149.341 E144.19238
G0 F6562.5 X20.45 Y149.591
G0 X20.365 Y149.591
G0 X20.437 Y155.131
G0 X141.563 Y155.131
G0 X142.502 Y142.502
G0 X142.557 Y142.557
G1 F1350 X142.557 Y155.118 E144.43851
G1 X155.118 Y155.118 E144.68463
G1 X155.118 Y142.557 E144.93076
G1 X142.557 Y142.557 E145.17688
G0 F6562.5 X142.557 Y142.807
G0 X142.472 Y142.807
G0 X142.536 Y142.571
G0 X155.173 Y141.605
G0 X155.118 Y141.55
G1 F1350 X155.118 Y20.45 E147.54975
G1 X142.262 Y20.45 E147.80166
G1 X88.287 Y74.424 E149.29732
G1 X88.287 Y87.576 E149.55503
G1 X142.262 Y141.55 E151.05069
G1 X155.118 Y141.55 E151.3026
G0 F6562.5 X155.118 Y141.3
G0 X155.203 Y141.3
G0 X156.04 Y156.125
G0 X156.125 Y156.125
G1 F1350 X5.875 Y156.125 E154.24664
G1 X5.875 Y5.875 E157.19069
G1 X156.125 Y5.875 E160.13474
G1 X156.125 Y156.125 E163.07879
G0 F6562.5 X155.875 Y156.125
G0 X155.875 Y156.04
G0 X142.544 Y155.131
G0 X141.571 Y142.252
G0 X87.586 Y88.266
G0 X74.707 Y87.293
G0 X73.734 Y74.414
G0 X19.748 Y20.429
G0 X6.827 Y20.395
G0 X6.882 Y20.45
G1 F1350 X6.882 Y141.55 E165.45166
G1 X12.659 Y141.55 E165.56486
G1 X12.659 Y134.766 E165.69779
G1 X26.522 Y134.766 E165.96942
G1 X73.713 Y87.576 E167.2771
G1 X73.713 Y74.424 E167.5348
G1 X19.738 Y20.45 E169.03047
G1 X6.882 Y20.45 E169.28237
G0 F6562.5 X6.882 Y20.7
G0 X6.797 Y20.7
